X: 1470
T: George Barlow's Waltz
B: australian traditional tunes wiki
M:3/4
L:1/8
R: Waltz
Q: 1/4=100
K:C
V:1 
G2|"C"a>g e>g c>e|G2.c2zA|"G7"B6-|B4g2|a>g d>f B>d|G2d3f|"C"e6-|e4G2|
"C"a>g e>g c>e|G2.c2zA|"G7"B4c2|d6|d3ed2|"D7"c2B2A2|"G"G6-|"G7"G4g2||
"C"a>g e>g c>e|G2.c2zA|"G7"B6-|B4g2|a>g d>f B>d|G2d3f|"C"e6-|e4z2|
g2a2g2|e2f2e2|"F"d4c2|A6|"G7"B2A2G2|f2A2B2|"C"c6-|c2z2||
% abcbook-tune_id 6342d53a9b63b7e47d4d6121


% abcbook-boost 0
% abcbook-tablature 
% abcbook-transpose 
% abcbook-lastupdated 1665324366702
% abcbook-soundfonts 
% abcbook-repeats 1
% NFF Book 2008

